X: 187
T: Zou NIgong
%%abc-version 2.0
%%abcx-abcm2ps-target-version 5.9.1 (29 Sep 2008)
%%abc-creator hum2abc beta
%%abcx-conversion-date 2013/10/02 07:52:29
%%abc-edited-by Helmut Schaffrath
%%humdrum-veritas 1926375451
%%humdrum-veritas-data 72675599
%%continueall 1
%%barnumbers 0
L: 1/8
M: 2/4
K: Bb
c2c c [I:setbarnb 1]| 
d c d f | 
c B G F | 
D4 | 
d d d c | 
G B c d | 
c c/ G/ F D | 
F4 |]  



